packages/amis-ui/src/icons/reload.svg

<svg xmlns="http://www.w3.org/2000/svg" xmlns:xlink="http://www.w3.org/1999/xlink" viewBox="0 0 16 16" version="1.1">
	<g fill="currentColor" fill-rule="nonzero">
		<path d="M8.05031447,14.0555556 C5.93710692,14.0555556 4.02515723,12.9861111 2.91823899,11.2361111 L5.03144654,9.19444444 L0,9.19444444 L0,14.0555556 L1.40880503,12.6944444 C2.91823899,14.7361111 5.33333333,16 8.05031447,16 C12.0754717,16 15.4968553,13.1805556 16,9.29166667 L13.9874214,9 C13.5849057,11.9166667 11.0691824,14.0555556 8.05031447,14.0555556 Z M14.591195,3.30555556 C13.081761,1.26388889 10.6666667,0 7.94968553,0 C3.9245283,0 0.503144654,2.81944444 0,6.70833333 L2.01257862,7 C2.41509434,4.08333333 4.93081761,1.94444444 7.94968553,1.94444444 C10.0628931,1.94444444 11.9748428,3.01388889 13.081761,4.76388889 L10.9685535,6.80555556 L16,6.80555556 L16,1.94444444 L14.591195,3.30555556 Z" >
		</path>
	</g>
</svg>

<svg xmlns="http://www.w3.org/2000/svg" viewBox="0 0 16 16"><path d="M8.05 14.056a6.041 6.041 0 0 1-5.132-2.82l2.113-2.042H0v4.862l1.409-1.362C2.919 14.736 5.333 16 8.05 16c4.025 0 7.447-2.82 7.95-6.708L13.987 9c-.402 2.917-2.918 5.056-5.937 5.056Zm6.541-10.75C13.081 1.264 10.667 0 7.95 0 3.925 0 .503 2.82 0 6.708L2.013 7C2.415 4.083 4.93 1.944 7.95 1.944a6.041 6.041 0 0 1 5.132 2.82l-2.113 2.042H16V1.944l-1.409 1.362Z" fill="currentColor"/></svg>
